Dominus_Dark_Funeral/scalable/mimes/text-x-markdown.svg

<svg xmlns="http://www.w3.org/2000/svg" xmlns:xlink="http://www.w3.org/1999/xlink" width="48" height="48" viewBox="0 0 12.7 12.7"><defs><linearGradient id="a"><stop offset="0"/><stop offset="1" stop-opacity="0"/></linearGradient><linearGradient xlink:href="#a" id="d" x1="3.03" y1="4.01" x2="12.01" y2="8.57" gradientUnits="userSpaceOnUse"/><linearGradient xlink:href="#b" id="c" x1="9.42" y1="37.6" x2="41.07" y2="20.93" gradientUnits="userSpaceOnUse"/><linearGradient id="b"><stop offset="0" stop-color="#87a087"/><stop offset=".2" stop-color="#6f916f"/><stop offset=".33" stop-color="#536c53"/><stop offset=".44" stop-color="#6a836a"/><stop offset=".57" stop-color="#87a087"/><stop offset=".76" stop-color="#536c53"/><stop offset="1" stop-color="#6f916f"/></linearGradient></defs><path d="M40.89 17.42l-7.83 30.55H14.94L7.11 17.42 13.01.03H35z" fill="url(#c)" transform="scale(.26458)"/><path d="M4.84 11.59l-.89 1.1h4.8l-.89-1.1z" fill="#1c241c" fill-opacity=".1"/><path d="M7.86 11.59l.89 1.1 2.07-8.09-1.18.05z" fill="#1c241c" fill-opacity=".47"/><path d="M3.44 0l.82 1.1h4.18L9.26 0z" fill="#1c241c" fill-opacity=".35"/><path d="M10.82 4.6L9.26 0l-.82 1.1 1.2 3.55z" fill="#1c241c" fill-opacity=".71"/><path d="M4.84 11.59l-.89 1.1L1.88 4.6l1.18.05z" fill="#1c241c" fill-opacity=".47"/><path d="M1.88 4.6L3.44 0l.82 1.1-1.2 3.55z" fill="#1c241c" fill-opacity=".71"/><path d="M4.07 7.14l1.3-3.9L7 4.85l1.63-1.63.8.8.21.62-.58 2.27L8 11.07l-1.65-1.6-.29-.33L4.42 7.5z" fill="url(#d)" opacity=".55"/><path d="M4.07 3.23v3.91h1.3V5.2l.33.43v1.9H4.42l1.93 1.95 2-1.96H7V5.63l.32-.44v1.95h1.3v-3.9h-1.3l-.94 1.95-1.02-1.96z" fill="#ccc"/></svg>

<?xml version="1.0" encoding="UTF-8" standalone="no"?>
<svg
   xmlns:dc="http://purl.org/dc/elements/1.1/"
   xmlns:cc="http://creativecommons.org/ns#"
   xmlns:rdf="http://www.w3.org/1999/02/22-rdf-syntax-ns#"
   xmlns:svg="http://www.w3.org/2000/svg"
   xmlns="http://www.w3.org/2000/svg"
   xmlns:xlink="http://www.w3.org/1999/xlink"
   xmlns:sodipodi="http://sodipodi.sourceforge.net/DTD/sodipodi-0.dtd"
   xmlns:inkscape="http://www.inkscape.org/namespaces/inkscape"
   width="48"
   height="48"
   viewBox="0 0 12.7 12.7"
   version="1.1"
   id="svg44"
   sodipodi:docname="text-x-markdown.svg"
   inkscape:version="0.92.4 (5da689c313, 2019-01-14)">
  <metadata
     id="metadata48">
    <rdf:RDF>
      <cc:Work
         rdf:about="">
        <dc:format>image/svg+xml</dc:format>
        <dc:type
           rdf:resource="http://purl.org/dc/dcmitype/StillImage" />
        <dc:title></dc:title>
      </cc:Work>
    </rdf:RDF>
  </metadata>
  <sodipodi:namedview
     pagecolor="#ffffff"
     bordercolor="#666666"
     borderopacity="1"
     objecttolerance="10"
     gridtolerance="10"
     guidetolerance="10"
     inkscape:pageopacity="0"
     inkscape:pageshadow="2"
     inkscape:window-width="1112"
     inkscape:window-height="480"
     id="namedview46"
     showgrid="false"
     inkscape:zoom="4.9166667"
     inkscape:cx="2.1355932"
     inkscape:cy="24"
     inkscape:window-x="0"
     inkscape:window-y="25"
     inkscape:window-maximized="0"
     inkscape:current-layer="svg44" />
  <defs
     id="defs24">
    <linearGradient
       id="a">
      <stop
         offset="0"
         id="stop2" />
      <stop
         offset="1"
         stop-opacity="0"
         id="stop4" />
    </linearGradient>
    <linearGradient
       xlink:href="#a"
       id="d"
       x1="3.03"
       y1="4.01"
       x2="12.01"
       y2="8.57"
       gradientUnits="userSpaceOnUse" />
    <linearGradient
       xlink:href="#b"
       id="c"
       x1="9.42"
       y1="37.6"
       x2="41.07"
       y2="20.93"
       gradientUnits="userSpaceOnUse"
       gradientTransform="scale(0.26458)" />
    <linearGradient
       id="b">
      <stop
         offset="0"
         stop-color="#87a087"
         id="stop9" />
      <stop
         offset=".2"
         stop-color="#6f916f"
         id="stop11" />
      <stop
         offset=".33"
         stop-color="#536c53"
         id="stop13" />
      <stop
         offset=".44"
         stop-color="#6a836a"
         id="stop15" />
      <stop
         offset=".57"
         stop-color="#87a087"
         id="stop17" />
      <stop
         offset=".76"
         stop-color="#536c53"
         id="stop19" />
      <stop
         offset="1"
         stop-color="#6f916f"
         id="stop21" />
    </linearGradient>
  </defs>
  <path
     d="M 10.818677,4.6089836 8.7470148,12.691903 H 3.9528252 L 1.8811638,4.6089836 3.4421858,0.0079374 H 9.2603 Z"
     id="path26"
     style="fill:url(#c);stroke-width:0.26458001"
     inkscape:connector-curvature="0" />
  <path
     d="m 4.84,11.59 -0.89,1.1 h 4.8 l -0.89,-1.1 z"
     id="path28"
     inkscape:connector-curvature="0"
     style="fill:#1c241c;fill-opacity:0.1" />
  <path
     d="M 7.86,11.59 8.75,12.69 10.82,4.6 9.64,4.65 Z"
     id="path30"
     inkscape:connector-curvature="0"
     style="fill:#1c241c;fill-opacity:0.47000002" />
  <path
     d="M 3.44,0 4.26,1.1 H 8.44 L 9.26,0 Z"
     id="path32"
     inkscape:connector-curvature="0"
     style="fill:#1c241c;fill-opacity:0.35" />
  <path
     d="M 10.82,4.6 9.26,0 8.44,1.1 9.64,4.65 Z"
     id="path34"
     inkscape:connector-curvature="0"
     style="fill:#1c241c;fill-opacity:0.70999995" />
  <path
     d="M 4.84,11.59 3.95,12.69 1.88,4.6 3.06,4.65 Z"
     id="path36"
     inkscape:connector-curvature="0"
     style="fill:#1c241c;fill-opacity:0.47000002" />
  <path
     d="M 1.88,4.6 3.44,0 4.26,1.1 3.06,4.65 Z"
     id="path38"
     inkscape:connector-curvature="0"
     style="fill:#1c241c;fill-opacity:0.70999995" />
  <path
     d="M 4.07,7.14 5.37,3.24 7,4.85 8.63,3.22 9.43,4.02 9.64,4.64 9.06,6.91 8,11.07 6.35,9.47 6.06,9.14 4.42,7.5 Z"
     id="path40"
     style="opacity:0.55;fill:url(#d)"
     inkscape:connector-curvature="0" />
  <path
     d="m 4.07,3.23 v 3.91 h 1.3 V 5.2 L 5.7,5.63 v 1.9 H 4.42 l 1.93,1.95 2,-1.96 H 7 V 5.63 L 7.32,5.19 v 1.95 h 1.3 V 3.24 H 7.32 L 6.38,5.19 5.36,3.23 Z"
     id="path42"
     inkscape:connector-curvature="0"
     style="fill:#cccccc" />
</svg>
